X:4976
L:1/8
Q:1/4=140
M:3/4
K:G
 B3/2"^P" c/ d4 | G3/2 A/ B2 z B | B c A2 z D | A B G2 z2 | B3/2 c/ d4 | G3/2 A/ B2 z B | 
"^rallentando" A3 F E A | D4 z2 | A"^a tempo" ^G A3 A | A B G2 z2 | A3 B c e | d2 B2 z2 | 
 A ^G A3 A | A B G2 z B | B3 G F B | 
"^NB" G3/2 E3/2 !fermata!D2 E/4D/4C/4D/4"^Ad Lib" F/E/D/ A/G/F/ c/B/A/"^rallentando" e2 d/c/ | 
 B3/2 c/ d4 | G3/2 A/ B4 | B c A2 z D | A B G2 z B | B3/2 c/ d4 | G3/2 A/ B2 z d | 
"^rall" e3 d c3/2 A/ | G2 z2 (3d d d | (d2 B2) (3B B B | (B2 G2) (3d ^c d | 
 (3e d c (3c B A (3A G F | G2 z2 (3d d d | d2 B2 (3B B B | (B2 G2){e} (3d ^c d | 
 e3 d3/2 c3/2 A/ G4 |]

